public/icons/forms/eye.svg

<svg width="16" height="16" viewBox="0 0 16 16" fill="none" xmlns="http://www.w3.org/2000/svg">
<g id="eye" clip-path="url(#clip0_482_2)">
<path id="Vector" d="M7.85941 9.70605C8.89494 9.70605 9.73441 8.86659 9.73441 7.83105C9.73441 6.79552 8.89494 5.95605 7.85941 5.95605C6.82387 5.95605 5.98441 6.79552 5.98441 7.83105C5.98441 8.86659 6.82387 9.70605 7.85941 9.70605Z" fill="black"/>
<path id="Vector_2" d="M14.7395 7.32129C13.9643 6.12246 12.9585 5.1041 11.8312 4.37607C10.584 3.56982 9.20707 3.14355 7.84945 3.14355C6.60375 3.14355 5.37884 3.49951 4.20873 4.20146C3.01546 4.91719 1.93441 5.96279 0.995445 7.30898C0.889445 7.46112 0.831066 7.64134 0.827727 7.82674C0.824389 8.01213 0.876241 8.19434 0.976695 8.3502C1.75043 9.56104 2.74623 10.5809 3.85599 11.2989C5.1055 12.1084 6.45023 12.5186 7.84945 12.5186C9.21791 12.5186 10.5978 12.0958 11.8397 11.2963C12.9664 10.5706 13.9702 9.54844 14.7424 8.33965C14.8394 8.18741 14.8907 8.01055 14.8902 7.83004C14.8897 7.64953 14.8374 7.47296 14.7395 7.32129ZM7.85941 10.6436C7.30315 10.6436 6.75938 10.4786 6.29687 10.1696C5.83436 9.86052 5.47387 9.42127 5.261 8.90735C5.04813 8.39343 4.99243 7.82793 5.10095 7.28236C5.20947 6.73679 5.47734 6.23565 5.87067 5.84232C6.26401 5.44898 6.76515 5.18112 7.31072 5.0726C7.85629 4.96408 8.42179 5.01977 8.93571 5.23264C9.44963 5.44552 9.88888 5.806 10.1979 6.26851C10.507 6.73103 10.6719 7.27479 10.6719 7.83105C10.6711 8.57671 10.3745 9.29159 9.84721 9.81885C9.31995 10.3461 8.60507 10.6427 7.85941 10.6436Z" fill="black"/>
</g>
<defs>
<clipPath id="clip0_482_2">
<rect width="15" height="15" fill="white" transform="translate(0.359406 0.331055)"/>
</clipPath>
</defs>
</svg>

<svg xmlns="http://www.w3.org/2000/svg" fill="none" viewBox="0 0 16 16"><g fill="#000" clip-path="url(#a)"><path d="M7.86 9.7a1.87 1.87 0 1 0 0-3.74 1.87 1.87 0 0 0 0 3.75Z"/><path d="M14.74 7.32a9.93 9.93 0 0 0-2.9-2.94 7.36 7.36 0 0 0-4-1.24c-1.24 0-2.46.36-3.63 1.06C3 4.92 1.93 5.96 1 7.3a.94.94 0 0 0-.02 1.05 9.79 9.79 0 0 0 2.88 2.95c1.25.8 2.59 1.22 3.99 1.22 1.37 0 2.75-.42 3.99-1.22a9.78 9.78 0 0 0 2.9-2.96.94.94 0 0 0 0-1.02Zm-6.88 3.32a2.81 2.81 0 1 1 0-5.62 2.81 2.81 0 0 1 0 5.62Z"/></g><defs><clipPath><path fill="#fff" d="M0 0h15v15H0z" transform="translate(.36 .33)"/></clipPath></defs></svg>
